X:1
T: Camp Hornpipe
C:
R:Reel
Q: 232
K:D
M:4/4
L:1/8
AG|:FA df ed fd|ed fd AB AG|FA df ed fd|gf ed cB AG|
FA df ed fd|ed fd AB AG|FA df ag ec|d2 d2 d2:|
|:fg|ag fe d2 ga|ba gf e2 ef|gf ed ce gb|ag fe d2 AG|
FA df ed fd|ed fd AB AG|FA df ag ec|d2 d2 d2:|
